X: 36233
T: Scurrying Down The Stairs
R: jig
M: 6/8
K: Gmajor
dBe dBA|GEA GED|B,DE GAB|dBG A2B|
dBe dBA|GEA GED|B,BA GED|EGA G2 [1 B:|2 G||
|:AGA BGE DB,D EDB,|A,G,A, B,DE|GAB A2B|
dgf edB|Adc BGE|DEd BAG|EGA [1 G2 G:|2 G3||

